archive-plus-outline.svg

<svg fill="currentColor" viewBox="0 0 24 24"><path d="M18 13.09V10h2v3.09c-.33-.05-.66-.09-1-.09s-.67.04-1 .09M9.5 11c-.28 0-.5.22-.5.5V13h6v-1.5c0-.28-.22-.5-.5-.5zM21 9H3V3h18zm-2-4H5v2h14zM6 19v-9H4v11h9.35c-.22-.63-.35-1.3-.35-2zm14-1v-3h-2v3h-3v2h3v3h2v-3h3v-2z"/></svg>

<svg  viewBox="0 0 24 24" fill="currentColor"><path  d="M18 13.09V10H20V13.09C19.67 13.04 19.34 13 19 13C18.66 13 18.33 13.04 18 13.09M9.5 11C9.22 11 9 11.22 9 11.5V13H15V11.5C15 11.22 14.78 11 14.5 11H9.5M21 9H3V3H21V9M19 5H5V7H19V5M6 19V10H4V21H13.35C13.13 20.37 13 19.7 13 19H6M20 18V15H18V18H15V20H18V23H20V20H23V18H20Z"/></svg>
